X:1
T:Chaffpool Post (The)
M:4/4
L:1/8
Q:190
R:barndance
Z:Philippe Varlet (9/10/99)
S:ChristopherGeorge Partington <ChrisTheFiddlerPartington@Hotmail.com> tradtunes 2006-9-11
K:G
A | B2AB e2dB | d2cA E2FG | A2AB cAFA | GABG D2B,D |
B2AB e2dB | d2cA E2FG | A2AB cAFA | G2g2 g3 :||
f | e^def gfga | b2d2 d3 B | cBAB cdef | g2B2 B2gf |
e^def gfga | b2d2 d3 B | cBAB cdef | g2fa g3 :||
